X: 134
T:Plethen Peswar Luf
M:4/4
L:1/8
R:Reel
Z:bil@blueskiesink.com
K:D
D2 FA dA F2|D2 GB dB G2|D2 FA dA Ad|AdcB AGFE|
D2 FA dA F2|D2 FB dA F|D2 GB dA G|edcB AGFE|1 D2 d2 d4|2 D2 d2 d2 (3ABc:
|
dA FA dA FA|dB GB dB GB|dA FA dA FA|cA EA cA EA|
dA FA dA FA|dB GB dB GB|edcB AGFE|1 D2 d2 d2 (3ABc|2 D2 d2 d4||
<end>
<start>
